images/3234706.svg

<?xml version="1.0" encoding="UTF-8"?>
<svg xmlns="http://www.w3.org/2000/svg" xmlns:xlink="http://www.w3.org/1999/xlink" width="300pt" height="300pt" viewBox="0 0 300 300" version="1.1">
<defs>
<g>
<symbol overflow="visible" id="glyph0-0">
<path style="stroke:none;" d="M 0.546875 1.9375 L 0.546875 -7.75 L 6.046875 -7.75 L 6.046875 1.9375 Z M 1.171875 1.328125 L 5.4375 1.328125 L 5.4375 -7.140625 L 1.171875 -7.140625 Z M 1.171875 1.328125 "/>
</symbol>
<symbol overflow="visible" id="glyph0-1">
<path style="stroke:none;" d="M 1.078125 -8.015625 L 2.546875 -8.015625 L 6.09375 -1.3125 L 6.09375 -8.015625 L 7.15625 -8.015625 L 7.15625 0 L 5.6875 0 L 2.125 -6.703125 L 2.125 0 L 1.078125 0 Z M 1.078125 -8.015625 "/>
</symbol>
<symbol overflow="visible" id="glyph0-2">
<path style="stroke:none;" d="M 4.328125 -7.28125 C 3.546875 -7.28125 2.921875 -6.984375 2.453125 -6.390625 C 1.992188 -5.804688 1.765625 -5.007812 1.765625 -4 C 1.765625 -2.988281 1.992188 -2.1875 2.453125 -1.59375 C 2.921875 -1.007812 3.546875 -0.71875 4.328125 -0.71875 C 5.117188 -0.71875 5.742188 -1.007812 6.203125 -1.59375 C 6.660156 -2.1875 6.890625 -2.988281 6.890625 -4 C 6.890625 -5.007812 6.660156 -5.804688 6.203125 -6.390625 C 5.742188 -6.984375 5.117188 -7.28125 4.328125 -7.28125 Z M 4.328125 -8.171875 C 5.453125 -8.171875 6.351562 -7.789062 7.03125 -7.03125 C 7.707031 -6.28125 8.046875 -5.269531 8.046875 -4 C 8.046875 -2.738281 7.707031 -1.726562 7.03125 -0.96875 C 6.351562 -0.21875 5.453125 0.15625 4.328125 0.15625 C 3.203125 0.15625 2.300781 -0.21875 1.625 -0.96875 C 0.957031 -1.71875 0.625 -2.726562 0.625 -4 C 0.625 -5.269531 0.957031 -6.28125 1.625 -7.03125 C 2.300781 -7.789062 3.203125 -8.171875 4.328125 -8.171875 Z M 4.328125 -8.171875 "/>
</symbol>
<symbol overflow="visible" id="glyph0-3">
<path style="stroke:none;" d="M 1.078125 -8.015625 L 5.6875 -8.015625 L 5.6875 -7.109375 L 2.171875 -7.109375 L 2.171875 -4.75 L 5.34375 -4.75 L 5.34375 -3.828125 L 2.171875 -3.828125 L 2.171875 0 L 1.078125 0 Z M 1.078125 -8.015625 "/>
</symbol>
</g>
</defs>
<g id="surface30145">
<rect x="0" y="0" width="300" height="300" style="fill:rgb(100%,100%,100%);fill-opacity:1;stroke:none;"/>
<path style="fill:none;stroke-width:1.2;stroke-linecap:butt;stroke-linejoin:miter;stroke:rgb(0%,0%,0%);stroke-opacity:1;stroke-miterlimit:10;" d="M 263.566406 224.488281 L 256.730469 211.960938 "/>
<path style="fill:none;stroke-width:1.2;stroke-linecap:butt;stroke-linejoin:miter;stroke:rgb(0%,0%,100%);stroke-opacity:1;stroke-miterlimit:10;" d="M 256.730469 211.960938 L 249.890625 199.433594 "/>
<path style="fill:none;stroke-width:1.2;stroke-linecap:butt;stroke-linejoin:miter;stroke:rgb(0%,0%,100%);stroke-opacity:1;stroke-miterlimit:10;" d="M 249.890625 199.433594 L 257.320312 187.246094 "/>
<path style="fill:none;stroke-width:1.2;stroke-linecap:butt;stroke-linejoin:miter;stroke:rgb(0%,0%,0%);stroke-opacity:1;stroke-miterlimit:10;" d="M 257.320312 187.246094 L 264.75 175.058594 "/>
<path style="fill:none;stroke-width:1.2;stroke-linecap:butt;stroke-linejoin:miter;stroke:rgb(0%,0%,100%);stroke-opacity:1;stroke-miterlimit:10;" d="M 249.890625 199.433594 L 235.621094 199.089844 "/>
<path style="fill:none;stroke-width:1.2;stroke-linecap:butt;stroke-linejoin:miter;stroke:rgb(0%,0%,0%);stroke-opacity:1;stroke-miterlimit:10;" d="M 235.621094 199.089844 L 221.347656 198.75 "/>
<path style=" stroke:none;fill-rule:nonzero;fill:rgb(100%,100%,100%);fill-opacity:1;" d="M 245.890625 192.933594 L 253.890625 192.933594 L 253.890625 205.933594 L 245.890625 205.933594 Z M 245.890625 192.933594 "/>
<g style="fill:rgb(0%,0%,100%);fill-opacity:1;">
  <use xlink:href="#glyph0-1" x="245.890625" y="202.834961"/>
</g>
<path style="fill:none;stroke-width:1.2;stroke-linecap:butt;stroke-linejoin:miter;stroke:rgb(0%,0%,0%);stroke-opacity:1;stroke-miterlimit:10;" d="M 221.347656 198.75 L 213.917969 210.9375 "/>
<path style="fill:none;stroke-width:1.2;stroke-linecap:butt;stroke-linejoin:miter;stroke:rgb(0%,0%,100%);stroke-opacity:1;stroke-miterlimit:10;" d="M 213.917969 210.9375 L 206.488281 223.125 "/>
<path style="fill:none;stroke-width:1.2;stroke-linecap:butt;stroke-linejoin:miter;stroke:rgb(0%,0%,0%);stroke-opacity:1;stroke-miterlimit:10;" d="M 214.128906 197.691406 L 208.183594 207.441406 "/>
<path style="fill:none;stroke-width:1.2;stroke-linecap:butt;stroke-linejoin:miter;stroke:rgb(0%,0%,100%);stroke-opacity:1;stroke-miterlimit:10;" d="M 208.183594 207.441406 L 202.238281 217.191406 "/>
<path style="fill:none;stroke-width:1.2;stroke-linecap:butt;stroke-linejoin:miter;stroke:rgb(0%,0%,100%);stroke-opacity:1;stroke-miterlimit:10;" d="M 207.671875 173.691406 L 214.511719 186.222656 "/>
<path style="fill:none;stroke-width:1.2;stroke-linecap:butt;stroke-linejoin:miter;stroke:rgb(0%,0%,0%);stroke-opacity:1;stroke-miterlimit:10;" d="M 214.511719 186.222656 L 221.347656 198.75 "/>
<path style="fill:none;stroke-width:1.2;stroke-linecap:butt;stroke-linejoin:miter;stroke:rgb(0%,0%,100%);stroke-opacity:1;stroke-miterlimit:10;" d="M 206.488281 223.125 L 192.21875 222.785156 "/>
<path style="fill:none;stroke-width:1.2;stroke-linecap:butt;stroke-linejoin:miter;stroke:rgb(0%,0%,0%);stroke-opacity:1;stroke-miterlimit:10;" d="M 192.21875 222.785156 L 177.949219 222.441406 "/>
<path style=" stroke:none;fill-rule:nonzero;fill:rgb(100%,100%,100%);fill-opacity:1;" d="M 202.488281 216.625 L 210.488281 216.625 L 210.488281 229.625 L 202.488281 229.625 Z M 202.488281 216.625 "/>
<g style="fill:rgb(0%,0%,100%);fill-opacity:1;">
  <use xlink:href="#glyph0-1" x="202.488281" y="226.526367"/>
</g>
<path style="fill:none;stroke-width:1.2;stroke-linecap:butt;stroke-linejoin:miter;stroke:rgb(0%,0%,0%);stroke-opacity:1;stroke-miterlimit:10;" d="M 177.949219 222.441406 L 164.269531 197.386719 "/>
<path style="fill:none;stroke-width:1.2;stroke-linecap:butt;stroke-linejoin:miter;stroke:rgb(0%,0%,0%);stroke-opacity:1;stroke-miterlimit:10;" d="M 182.476562 216.71875 L 171.535156 196.671875 "/>
<path style="fill:none;stroke-width:1.2;stroke-linecap:butt;stroke-linejoin:miter;stroke:rgb(0%,0%,0%);stroke-opacity:1;stroke-miterlimit:10;" d="M 164.269531 197.386719 L 179.128906 173.011719 "/>
<path style="fill:none;stroke-width:1.2;stroke-linecap:butt;stroke-linejoin:miter;stroke:rgb(0%,0%,100%);stroke-opacity:1;stroke-miterlimit:10;" d="M 135.730469 196.703125 L 150 197.042969 "/>
<path style="fill:none;stroke-width:1.2;stroke-linecap:butt;stroke-linejoin:miter;stroke:rgb(0%,0%,0%);stroke-opacity:1;stroke-miterlimit:10;" d="M 150 197.042969 L 164.269531 197.386719 "/>
<path style="fill:none;stroke-width:1.2;stroke-linecap:butt;stroke-linejoin:miter;stroke:rgb(0%,0%,0%);stroke-opacity:1;stroke-miterlimit:10;" d="M 179.128906 173.011719 L 193.402344 173.351562 "/>
<path style="fill:none;stroke-width:1.2;stroke-linecap:butt;stroke-linejoin:miter;stroke:rgb(0%,0%,100%);stroke-opacity:1;stroke-miterlimit:10;" d="M 193.402344 173.351562 L 207.671875 173.691406 "/>
<path style="fill:none;stroke-width:1.2;stroke-linecap:butt;stroke-linejoin:miter;stroke:rgb(0%,0%,0%);stroke-opacity:1;stroke-miterlimit:10;" d="M 181.824219 179.792969 L 193.238281 180.066406 "/>
<path style="fill:none;stroke-width:1.2;stroke-linecap:butt;stroke-linejoin:miter;stroke:rgb(0%,0%,100%);stroke-opacity:1;stroke-miterlimit:10;" d="M 193.238281 180.066406 L 204.65625 180.339844 "/>
<path style="fill:none;stroke-width:1.2;stroke-linecap:butt;stroke-linejoin:miter;stroke:rgb(0%,0%,0%);stroke-opacity:1;stroke-miterlimit:10;" d="M 179.128906 173.011719 L 172.292969 160.480469 "/>
<path style="fill:none;stroke-width:1.2;stroke-linecap:butt;stroke-linejoin:miter;stroke:rgb(0%,0%,100%);stroke-opacity:1;stroke-miterlimit:10;" d="M 172.292969 160.480469 L 165.453125 147.953125 "/>
<path style=" stroke:none;fill-rule:nonzero;fill:rgb(100%,100%,100%);fill-opacity:1;" d="M 203.671875 167.191406 L 211.671875 167.191406 L 211.671875 180.191406 L 203.671875 180.191406 Z M 203.671875 167.191406 "/>
<g style="fill:rgb(0%,0%,100%);fill-opacity:1;">
  <use xlink:href="#glyph0-1" x="203.671875" y="177.092773"/>
</g>
<path style="fill:none;stroke-width:1.2;stroke-linecap:butt;stroke-linejoin:miter;stroke:rgb(0%,0%,100%);stroke-opacity:1;stroke-miterlimit:10;" d="M 165.453125 147.953125 L 151.183594 147.613281 "/>
<path style="fill:none;stroke-width:1.2;stroke-linecap:butt;stroke-linejoin:miter;stroke:rgb(0%,0%,0%);stroke-opacity:1;stroke-miterlimit:10;" d="M 151.183594 147.613281 L 136.910156 147.269531 "/>
<path style="fill:none;stroke-width:1.2;stroke-linecap:butt;stroke-linejoin:miter;stroke:rgb(0%,0%,100%);stroke-opacity:1;stroke-miterlimit:10;" d="M 165.453125 147.953125 L 172.882812 135.765625 "/>
<path style="fill:none;stroke-width:1.2;stroke-linecap:butt;stroke-linejoin:miter;stroke:rgb(0%,0%,0%);stroke-opacity:1;stroke-miterlimit:10;" d="M 172.882812 135.765625 L 180.3125 123.578125 "/>
<path style=" stroke:none;fill-rule:nonzero;fill:rgb(100%,100%,100%);fill-opacity:1;" d="M 161.453125 141.453125 L 169.453125 141.453125 L 169.453125 154.453125 L 161.453125 154.453125 Z M 161.453125 141.453125 "/>
<g style="fill:rgb(0%,0%,100%);fill-opacity:1;">
  <use xlink:href="#glyph0-1" x="161.453125" y="151.354492"/>
</g>
<path style="fill:none;stroke-width:1.2;stroke-linecap:butt;stroke-linejoin:miter;stroke:rgb(0%,0%,0%);stroke-opacity:1;stroke-miterlimit:10;" d="M 139.859375 145.660156 L 133.019531 133.132812 "/>
<path style="fill:none;stroke-width:1.2;stroke-linecap:butt;stroke-linejoin:miter;stroke:rgb(100%,0%,0%);stroke-opacity:1;stroke-miterlimit:10;" d="M 133.019531 133.132812 L 126.179688 120.605469 "/>
<path style="fill:none;stroke-width:1.2;stroke-linecap:butt;stroke-linejoin:miter;stroke:rgb(0%,0%,0%);stroke-opacity:1;stroke-miterlimit:10;" d="M 133.964844 148.878906 L 127.125 136.351562 "/>
<path style="fill:none;stroke-width:1.2;stroke-linecap:butt;stroke-linejoin:miter;stroke:rgb(100%,0%,0%);stroke-opacity:1;stroke-miterlimit:10;" d="M 127.125 136.351562 L 120.285156 123.820312 "/>
<path style="fill:none;stroke-width:1.2;stroke-linecap:butt;stroke-linejoin:miter;stroke:rgb(0%,0%,0%);stroke-opacity:1;stroke-miterlimit:10;" d="M 136.910156 147.269531 L 122.050781 171.644531 "/>
<path style=" stroke:none;fill-rule:nonzero;fill:rgb(100%,100%,100%);fill-opacity:1;" d="M 114.234375 115.714844 L 123.234375 115.714844 L 123.234375 128.714844 L 114.234375 128.714844 Z M 114.234375 115.714844 "/>
<g style="fill:rgb(100%,0%,0%);fill-opacity:1;">
  <use xlink:href="#glyph0-2" x="114.234375" y="125.616211"/>
</g>
<path style="fill:none;stroke-width:1.2;stroke-linecap:butt;stroke-linejoin:miter;stroke:rgb(0%,0%,0%);stroke-opacity:1;stroke-miterlimit:10;" d="M 122.050781 171.644531 L 128.890625 184.175781 "/>
<path style="fill:none;stroke-width:1.2;stroke-linecap:butt;stroke-linejoin:miter;stroke:rgb(0%,0%,100%);stroke-opacity:1;stroke-miterlimit:10;" d="M 128.890625 184.175781 L 135.730469 196.703125 "/>
<path style="fill:none;stroke-width:1.2;stroke-linecap:butt;stroke-linejoin:miter;stroke:rgb(0%,0%,0%);stroke-opacity:1;stroke-miterlimit:10;" d="M 129.316406 170.933594 L 134.785156 180.957031 "/>
<path style="fill:none;stroke-width:1.2;stroke-linecap:butt;stroke-linejoin:miter;stroke:rgb(0%,0%,100%);stroke-opacity:1;stroke-miterlimit:10;" d="M 134.785156 180.957031 L 140.257812 190.976562 "/>
<path style="fill:none;stroke-width:1.2;stroke-linecap:butt;stroke-linejoin:miter;stroke:rgb(0%,0%,0%);stroke-opacity:1;stroke-miterlimit:10;" d="M 122.050781 171.644531 L 93.511719 170.960938 "/>
<path style=" stroke:none;fill-rule:nonzero;fill:rgb(100%,100%,100%);fill-opacity:1;" d="M 131.730469 190.203125 L 139.730469 190.203125 L 139.730469 203.203125 L 131.730469 203.203125 Z M 131.730469 190.203125 "/>
<g style="fill:rgb(0%,0%,100%);fill-opacity:1;">
  <use xlink:href="#glyph0-1" x="131.730469" y="200.104492"/>
</g>
<path style="fill:none;stroke-width:1.2;stroke-linecap:butt;stroke-linejoin:miter;stroke:rgb(0%,0%,0%);stroke-opacity:1;stroke-miterlimit:10;" d="M 93.511719 170.960938 L 79.832031 145.90625 "/>
<path style="fill:none;stroke-width:1.2;stroke-linecap:butt;stroke-linejoin:miter;stroke:rgb(0%,0%,0%);stroke-opacity:1;stroke-miterlimit:10;" d="M 86.246094 171.675781 L 75.304688 151.628906 "/>
<path style="fill:none;stroke-width:1.2;stroke-linecap:butt;stroke-linejoin:miter;stroke:rgb(0%,0%,0%);stroke-opacity:1;stroke-miterlimit:10;" d="M 78.652344 195.335938 L 93.511719 170.960938 "/>
<path style="fill:none;stroke-width:1.2;stroke-linecap:butt;stroke-linejoin:miter;stroke:rgb(0%,0%,0%);stroke-opacity:1;stroke-miterlimit:10;" d="M 79.832031 145.90625 L 51.292969 145.222656 "/>
<path style="fill:none;stroke-width:1.2;stroke-linecap:butt;stroke-linejoin:miter;stroke:rgb(0%,0%,0%);stroke-opacity:1;stroke-miterlimit:10;" d="M 51.292969 145.222656 L 36.433594 169.597656 "/>
<path style="fill:none;stroke-width:1.2;stroke-linecap:butt;stroke-linejoin:miter;stroke:rgb(0%,0%,0%);stroke-opacity:1;stroke-miterlimit:10;" d="M 55.542969 151.15625 L 43.652344 170.65625 "/>
<path style="fill:none;stroke-width:1.2;stroke-linecap:butt;stroke-linejoin:miter;stroke:rgb(0%,0%,0%);stroke-opacity:1;stroke-miterlimit:10;" d="M 51.292969 145.222656 L 44.453125 132.695312 "/>
<path style="fill:none;stroke-width:1.2;stroke-linecap:butt;stroke-linejoin:miter;stroke:rgb(20%,80%,80%);stroke-opacity:1;stroke-miterlimit:10;" d="M 44.453125 132.695312 L 37.613281 120.164062 "/>
<path style="fill:none;stroke-width:1.2;stroke-linecap:butt;stroke-linejoin:miter;stroke:rgb(0%,0%,0%);stroke-opacity:1;stroke-miterlimit:10;" d="M 36.433594 169.597656 L 50.109375 194.65625 "/>
<path style="fill:none;stroke-width:1.2;stroke-linecap:butt;stroke-linejoin:miter;stroke:rgb(0%,0%,0%);stroke-opacity:1;stroke-miterlimit:10;" d="M 50.109375 194.65625 L 78.652344 195.335938 "/>
<path style="fill:none;stroke-width:1.2;stroke-linecap:butt;stroke-linejoin:miter;stroke:rgb(0%,0%,0%);stroke-opacity:1;stroke-miterlimit:10;" d="M 53.125 188.007812 L 75.957031 188.554688 "/>
<path style="fill:none;stroke-width:1.2;stroke-linecap:butt;stroke-linejoin:miter;stroke:rgb(0%,0%,0%);stroke-opacity:1;stroke-miterlimit:10;" d="M 50.109375 194.65625 L 42.679688 206.84375 "/>
<path style="fill:none;stroke-width:1.2;stroke-linecap:butt;stroke-linejoin:miter;stroke:rgb(20%,80%,80%);stroke-opacity:1;stroke-miterlimit:10;" d="M 42.679688 206.84375 L 35.25 219.03125 "/>
<path style=" stroke:none;fill-rule:nonzero;fill:rgb(100%,100%,100%);fill-opacity:1;" d="M 28.25 212.53125 L 35.25 212.53125 L 35.25 225.53125 L 28.25 225.53125 Z M 28.25 212.53125 "/>
<g style="fill:rgb(20%,80%,80%);fill-opacity:1;">
  <use xlink:href="#glyph0-3" x="28.25" y="222.432617"/>
</g>
<path style=" stroke:none;fill-rule:nonzero;fill:rgb(100%,100%,100%);fill-opacity:1;" d="M 30.613281 113.664062 L 37.613281 113.664062 L 37.613281 126.664062 L 30.613281 126.664062 Z M 30.613281 113.664062 "/>
<g style="fill:rgb(20%,80%,80%);fill-opacity:1;">
  <use xlink:href="#glyph0-3" x="30.613281" y="123.56543"/>
</g>
<path style="fill:none;stroke-width:1.2;stroke-linecap:butt;stroke-linejoin:miter;stroke:rgb(0%,0%,0%);stroke-opacity:1;stroke-miterlimit:10;" d="M 180.3125 123.578125 L 208.851562 124.261719 "/>
<path style="fill:none;stroke-width:1.2;stroke-linecap:butt;stroke-linejoin:miter;stroke:rgb(0%,0%,0%);stroke-opacity:1;stroke-miterlimit:10;" d="M 208.851562 124.261719 L 223.714844 99.886719 "/>
<path style="fill:none;stroke-width:1.2;stroke-linecap:butt;stroke-linejoin:miter;stroke:rgb(0%,0%,0%);stroke-opacity:1;stroke-miterlimit:10;" d="M 223.714844 99.886719 L 231.144531 87.699219 "/>
<path style="fill:none;stroke-width:1.2;stroke-linecap:butt;stroke-linejoin:miter;stroke:rgb(0%,0%,100%);stroke-opacity:1;stroke-miterlimit:10;" d="M 231.144531 87.699219 L 238.574219 75.511719 "/>
<path style="fill:none;stroke-width:1.2;stroke-linecap:butt;stroke-linejoin:miter;stroke:rgb(0%,0%,0%);stroke-opacity:1;stroke-miterlimit:10;" d="M 230.933594 100.945312 L 236.878906 91.195312 "/>
<path style="fill:none;stroke-width:1.2;stroke-linecap:butt;stroke-linejoin:miter;stroke:rgb(0%,0%,100%);stroke-opacity:1;stroke-miterlimit:10;" d="M 236.878906 91.195312 L 242.824219 81.445312 "/>
<path style="fill:none;stroke-width:1.2;stroke-linecap:butt;stroke-linejoin:miter;stroke:rgb(0%,0%,0%);stroke-opacity:1;stroke-miterlimit:10;" d="M 219.464844 93.949219 L 225.410156 84.199219 "/>
<path style="fill:none;stroke-width:1.2;stroke-linecap:butt;stroke-linejoin:miter;stroke:rgb(0%,0%,100%);stroke-opacity:1;stroke-miterlimit:10;" d="M 225.410156 84.199219 L 231.351562 74.449219 "/>
<path style=" stroke:none;fill-rule:nonzero;fill:rgb(100%,100%,100%);fill-opacity:1;" d="M 234.574219 69.011719 L 242.574219 69.011719 L 242.574219 82.011719 L 234.574219 82.011719 Z M 234.574219 69.011719 "/>
<g style="fill:rgb(0%,0%,100%);fill-opacity:1;">
  <use xlink:href="#glyph0-1" x="234.574219" y="78.913086"/>
</g>
</g>
</svg>

<svg xmlns="http://www.w3.org/2000/svg" xmlns:xlink="http://www.w3.org/1999/xlink" width="300pt" height="300pt" viewBox="0 0 300 300"><defs><symbol overflow="visible"><path d="M.547 1.938V-7.75h5.5v9.688zm.625-.61h4.266v-8.47H1.171zm0 0"/></symbol><symbol overflow="visible" id="a"><path d="M1.078-8.016h1.47l3.546 6.704v-6.704h1.062V0H5.688L2.124-6.703V0H1.078zm0 0"/></symbol><symbol overflow="visible" id="b"><path d="M4.328-7.28c-.78 0-1.406.296-1.875.89-.46.585-.687 1.382-.687 2.39 0 1.012.226 1.813.687 2.406.47.586 1.094.875 1.875.875.79 0 1.414-.288 1.875-.874.457-.593.688-1.394.688-2.406 0-1.008-.23-1.805-.687-2.39-.46-.594-1.086-.89-1.875-.89zm0-.892c1.125 0 2.024.383 2.703 1.14C7.708-6.28 8.048-5.27 8.048-4c0 1.262-.34 2.273-1.016 3.03C6.353-.22 5.454.157 4.33.157S2.3-.22 1.625-.97c-.668-.75-1-1.757-1-3.03 0-1.27.332-2.28 1-3.03.676-.76 1.578-1.142 2.703-1.142zm0 0"/></symbol><symbol overflow="visible" id="c"><path d="M1.078-8.016h4.61v.907H2.171v2.36h3.172v.922H2.172V0H1.078zm0 0"/></symbol></defs><g><path fill="#fff" d="M0 0h300v300H0z"/><path d="M263.566 224.488l-6.836-12.527" stroke-width="1.2" stroke="#000" stroke-miterlimit="10" fill="none"/><path d="M256.73 211.96l-6.84-12.526M249.89 199.434l7.43-12.188" stroke-width="1.2" stroke="#00f" stroke-miterlimit="10" fill="none"/><path d="M257.32 187.246l7.43-12.187" stroke-width="1.2" stroke="#000" stroke-miterlimit="10" fill="none"/><path d="M249.89 199.434l-14.27-.344" stroke-width="1.2" stroke="#00f" stroke-miterlimit="10" fill="none"/><path d="M235.62 199.09l-14.272-.34" stroke-width="1.2" stroke="#000" stroke-miterlimit="10" fill="none"/><path d="M245.89 192.934h8v13h-8zm0 0" fill="#fff"/><use xlink:href="#a" x="245.891" y="202.835" fill="#00f"/><path d="M221.348 198.75l-7.43 12.188" stroke-width="1.2" stroke="#000" stroke-miterlimit="10" fill="none"/><path d="M213.918 210.938l-7.43 12.187" stroke-width="1.2" stroke="#00f" stroke-miterlimit="10" fill="none"/><path d="M214.13 197.69l-5.946 9.75" stroke-width="1.2" stroke="#000" stroke-miterlimit="10" fill="none"/><path d="M208.184 207.44l-5.946 9.75M207.672 173.69l6.84 12.533" stroke-width="1.2" stroke="#00f" stroke-miterlimit="10" fill="none"/><path d="M214.512 186.223l6.836 12.527" stroke-width="1.2" stroke="#000" stroke-miterlimit="10" fill="none"/><path d="M206.488 223.125l-14.27-.34" stroke-width="1.2" stroke="#00f" stroke-miterlimit="10" fill="none"/><path d="M192.22 222.785l-14.27-.344" stroke-width="1.2" stroke="#000" stroke-miterlimit="10" fill="none"/><path d="M202.488 216.625h8v13h-8zm0 0" fill="#fff"/><use xlink:href="#a" x="202.488" y="226.526" fill="#00f"/><path d="M177.95 222.44l-13.68-25.053M182.477 216.72l-10.942-20.048M164.27 197.387l14.86-24.375" stroke-width="1.2" stroke="#000" stroke-miterlimit="10" fill="none"/><path d="M135.73 196.703l14.27.34" stroke-width="1.2" stroke="#00f" stroke-miterlimit="10" fill="none"/><path d="M150 197.043l14.27.344M179.13 173.012l14.272.34" stroke-width="1.2" stroke="#000" stroke-miterlimit="10" fill="none"/><path d="M193.402 173.352l14.27.34" stroke-width="1.2" stroke="#00f" stroke-miterlimit="10" fill="none"/><path d="M181.824 179.793l11.414.273" stroke-width="1.2" stroke="#000" stroke-miterlimit="10" fill="none"/><path d="M193.238 180.066l11.418.274" stroke-width="1.2" stroke="#00f" stroke-miterlimit="10" fill="none"/><path d="M179.13 173.012l-6.837-12.532" stroke-width="1.2" stroke="#000" stroke-miterlimit="10" fill="none"/><path d="M172.293 160.48l-6.84-12.527" stroke-width="1.2" stroke="#00f" stroke-miterlimit="10" fill="none"/><path d="M203.672 167.19h8v13h-8zm0 0" fill="#fff"/><use xlink:href="#a" x="203.672" y="177.093" fill="#00f"/><path d="M165.453 147.953l-14.27-.34" stroke-width="1.2" stroke="#00f" stroke-miterlimit="10" fill="none"/><path d="M151.184 147.613l-14.274-.343" stroke-width="1.2" stroke="#000" stroke-miterlimit="10" fill="none"/><path d="M165.453 147.953l7.43-12.187" stroke-width="1.2" stroke="#00f" stroke-miterlimit="10" fill="none"/><path d="M172.883 135.766l7.43-12.188" stroke-width="1.2" stroke="#000" stroke-miterlimit="10" fill="none"/><path d="M161.453 141.453h8v13h-8zm0 0" fill="#fff"/><use xlink:href="#a" x="161.453" y="151.354" fill="#00f"/><path d="M139.86 145.66l-6.84-12.527" stroke-width="1.2" stroke="#000" stroke-miterlimit="10" fill="none"/><path d="M133.02 133.133l-6.84-12.528" stroke-width="1.2" stroke="#f00" stroke-miterlimit="10" fill="none"/><path d="M133.965 148.88l-6.84-12.528" stroke-width="1.2" stroke="#000" stroke-miterlimit="10" fill="none"/><path d="M127.125 136.352l-6.84-12.532" stroke-width="1.2" stroke="#f00" stroke-miterlimit="10" fill="none"/><path d="M136.91 147.27l-14.86 24.375" stroke-width="1.2" stroke="#000" stroke-miterlimit="10" fill="none"/><path d="M114.234 115.715h9v13h-9zm0 0" fill="#fff"/><use xlink:href="#b" x="114.234" y="125.616" fill="#f00"/><path d="M122.05 171.645l6.84 12.53" stroke-width="1.2" stroke="#000" stroke-miterlimit="10" fill="none"/><path d="M128.89 184.176l6.84 12.527" stroke-width="1.2" stroke="#00f" stroke-miterlimit="10" fill="none"/><path d="M129.316 170.934l5.47 10.023" stroke-width="1.2" stroke="#000" stroke-miterlimit="10" fill="none"/><path d="M134.785 180.957l5.473 10.02" stroke-width="1.2" stroke="#00f" stroke-miterlimit="10" fill="none"/><path d="M122.05 171.645l-28.538-.684" stroke-width="1.2" stroke="#000" stroke-miterlimit="10" fill="none"/><path d="M131.73 190.203h8v13h-8zm0 0" fill="#fff"/><use xlink:href="#a" x="131.73" y="200.104" fill="#00f"/><path d="M93.512 170.96l-13.68-25.054M86.246 171.676l-10.94-20.047M78.652 195.336l14.86-24.375M79.832 145.906l-28.54-.683M51.293 145.223l-14.86 24.375M55.543 151.156l-11.89 19.5M51.293 145.223l-6.84-12.528" stroke-width="1.2" stroke="#000" stroke-miterlimit="10" fill="none"/><path d="M44.453 132.695l-6.84-12.53" stroke-width="1.2" stroke="#3cc" stroke-miterlimit="10" fill="none"/><path d="M36.434 169.598l13.675 25.058M50.11 194.656l28.542.68M53.125 188.008l22.832.547M50.11 194.656l-7.43 12.188" stroke-width="1.2" stroke="#000" stroke-miterlimit="10" fill="none"/><path d="M42.68 206.844l-7.43 12.187" stroke-width="1.2" stroke="#3cc" stroke-miterlimit="10" fill="none"/><path d="M28.25 212.53h7v13h-7zm0 0" fill="#fff"/><use xlink:href="#c" x="28.25" y="222.433" fill="#3cc"/><path d="M30.613 113.664h7v13h-7zm0 0" fill="#fff"/><use xlink:href="#c" x="30.613" y="123.565" fill="#3cc"/><path d="M180.313 123.578l28.54.684M208.852 124.262l14.863-24.375M223.715 99.887l7.43-12.188" stroke-width="1.2" stroke="#000" stroke-miterlimit="10" fill="none"/><path d="M231.145 87.7l7.43-12.188" stroke-width="1.2" stroke="#00f" stroke-miterlimit="10" fill="none"/><path d="M230.934 100.945l5.945-9.75" stroke-width="1.2" stroke="#000" stroke-miterlimit="10" fill="none"/><path d="M236.88 91.195l5.944-9.75" stroke-width="1.2" stroke="#00f" stroke-miterlimit="10" fill="none"/><path d="M219.465 93.95l5.945-9.75" stroke-width="1.2" stroke="#000" stroke-miterlimit="10" fill="none"/><path d="M225.41 84.2l5.942-9.75" stroke-width="1.2" stroke="#00f" stroke-miterlimit="10" fill="none"/><path d="M234.574 69.012h8v13h-8zm0 0" fill="#fff"/><use xlink:href="#a" x="234.574" y="78.913" fill="#00f"/></g></svg>
